!!!!SEGMENT: pl-sa--36-a-i-36--002_maldere-pierre-van--symphonia-ex-d-largo.krn
!!!cenid: 17xx:685
!!!COM: Maldere, Pierre van
!!!COM-rismid: pe30002048
!!!CDT: 1729/10/16-1768/11/01
!!!CNT: Flemish
!!!OTL: Symphonia ex D – Largo
!!!PDT:
!!!AGN: Secular
!!!SMS-siglum: PL-SA
!!!SMS-shelfmark: 36/A I 36
!!!SMS-shelfwork: 001-002 M
!!!SMS-variant:
!!!SMS-altvar:
!!!NIFC-rismid: 1001034985
!!!URL-scan: http://bc.bdsandomierz.pl/dlibra/publication/1294/edition/1262/content
!!!ONB-nifc: UWAGA: części Symphonii: Allegro assai, Largo, Vivace
**kern	**dynam	**kern	**dynam	**kern	**dynam	**kern	**dynam	**kern	**kern	**kern	**kern
*part8	*part8	*part7	*part7	*part6	*part6	*part5	*part5	*part4	*part3	*part2	*part1
*group3	*	*group3	*	*group3	*	*group3	*	*group2	*group2	*group1	*group1
*staff8	*	*staff7	*	*staff6	*	*staff5	*	*staff4	*staff3	*staff2	*staff1
*I"Baſso:.	*	*I"Alto:. Viola:.	*	*I"Violino 2do	*	*I"Violino 1.mo.	*	*I"Corno:. 2.do Ex D.:	*I"Corno 1mo. Ex. D.	*I"Oboe: 2.do	*I"Oboe. 1.mo
*I'B	*	*I'vla	*	*I'vl II	*	*I'vl I	*	*I'cor II	*I'cor I	*I'ob II	*I'ob I
*clefF4	*	*clefC3	*	*clefG2	*	*clefG2	*	*clefG2	*clefG2	*clefG2	*clefG2
*	*	*	*	*	*	*	*	*ITrd6c10	*ITrd6c10	*	*
*k[b-]	*	*k[b-]	*	*k[b-]	*	*k[b-]	*	*k[f#c#]	*k[f#c#]	*k[b-]	*k[b-]
*d:	*	*d:	*	*d:	*	*d:	*	*d:	*d:	*d:	*d:
*M3/4	*	*M3/4	*	*M3/4	*	*M3/4	*	*M3/4	*M3/4	*M3/4	*M3/4
=1	=1	=1	=1	=1	=1	=1	=1	=1	=1	=1	=1
!LO:TX:a:t=P:problem:przy kluczu błędnie bemol C-	!	!	!	!	!	!	!	!	!	!	!
!LO:TX:a:t=Largo.	!LO:DY:t=p	!LO:TX:a:t=Largo	!	!LO:TX:a:t=Largo&colon;.	!LO:DY:rj:t=p&colon;	!LO:TX:a:t=Largo	!	!LO:TX:a:t=Largo Tacet	!LO:TX:a:t=Largo Tacet	!LO:TX:a:t=Largo Tacet.&colon;	!LO:TX:a:t=Largo Tacet.&colon;
8D\L	p	8d\L	p	(16d/LL	p	8d/L	.	2.ryy	2.ryy	2.ryy	2.ryy
.	.	.	.	16a/)	.	.	.	.	.	.	.
8D\	.	8d\	.	(16f/	.	8f/J	p	.	.	.	.
.	.	.	.	16a/JJ)	.	.	.	.	.	.	.
!	!	!	!	!	!	!LO:N:vis=4.	!	!	!	!	!
*	*	*	*	*rep	*	*	*	*	*	*	*
8D\	f	8d\	f	(16d/LL	f	4a/	f	.	.	.	.
.	.	.	.	16a/)	.	.	.	.	.	.	.
8D\	.	8d\	.	(16f/	.	.	.	.	.	.	.
.	.	.	.	16a/JJ)	.	.	.	.	.	.	.
*	*	*	*	*Xrep	*	*	*	*	*	*	*
*	*	*	*	*rep	*	*	*	*	*	*	*
8D\	p	8d\	.	(16d/LL	.	(16g/LL	.	.	.	.	.
.	.	.	.	16a/)	.	16f/)	.	.	.	.	.
8D\J	.	8d\J	.	(16f/	.	16e/	p	.	.	.	.
.	.	.	.	16a/JJ)	.	16d/JJ	.	.	.	.	.
*	*	*	*	*Xrep	*	*	*	*	*	*	*
=2	=2	=2	=2	=2	=2	=2	=2	=2	=2	=2	=2
*2\right	*	*	*	*	*	*	*	*	*	*	*
*tremolo	*	*	*	*	*	*	*	*	*	*	*
8D\L	.	8d\L	.	(16d/LL	f	8g/L	p	2.ryy	2.ryy	2.ryy	2.ryy
.	.	.	.	16b-/)	.	.	.	.	.	.	.
!	!	!	!LO:DY:t=p..	!	!	!	!	!	!	!	!
8D\	.	8d\	p	(16g/	.	8b-/J	.	.	.	.	.
.	.	.	.	16b-/JJ)	.	.	.	.	.	.	.
*	*	*	*	*rep	*	*	*	*	*	*	*
8D\	.	8d\	.	(16d/LL	p	4dd\	f	.	.	.	.
.	.	.	.	16b-/)	.	.	.	.	.	.	.
8D\	.	8d\	f	(16g/	.	.	.	.	.	.	.
.	.	.	.	16b-/JJ)	.	.	.	.	.	.	.
*	*	*	*	*Xrep	*	*	*	*	*	*	*
*	*	*	*	*rep	*	*	*	*	*	*	*
8D\	.	8d\	.	(16d/LL	.	(16cc\LL	.	.	.	.	.
.	.	.	.	16b-/)	.	16b-\)	.	.	.	.	.
8D\J	.	8d\J	.	(16g/	.	(16a\	.	.	.	.	.
.	.	.	.	16b-/JJ)	.	16g\JJ)	.	.	.	.	.
*Xtremolo	*	*	*	*Xrep	*	*	*	*	*	*	*
=3	=3	=3	=3	=3	=3	=3	=3	=3	=3	=3	=3
!	!	!	!LO:DY:a:t=p	!	!	!	!	!	!	!	!
8D/L	.	8d\L	p	(16d/LL	.	8.a/L	.	2.ryy	2.ryy	2.ryy	2.ryy
.	.	.	.	16a/)	.	.	.	.	.	.	.
8D/	.	8d\	.	(16f/	.	.	.	.	.	.	.
.	.	.	.	16a/JJ)	.	16b-/Jk	.	.	.	.	.
8D/	.	8d\	.	16d/LL	.	8a/L	.	.	.	.	.
.	.	.	.	16a/	.	.	.	.	.	.	.
!	!	!	!LO:DY:a	!	!	!	!	!	!	!	!
8D/	.	8d\	f	16f/	.	8f/	.	.	.	.	.
.	.	.	.	16a/JJ	.	.	.	.	.	.	.
8AA/	.	8a\	.	(16c#X/LL	.	8g/	.	.	.	.	.
.	.	.	.	16a/)	.	.	.	.	.	.	.
8AA/J	.	8a\J	.	(16e/	.	8e/J	.	.	.	.	.
.	.	.	.	16a/JJ)	.	.	.	.	.	.	.
=4	=4	=4	=4	=4	=4	=4	=4	=4	=4	=4	=4
8D\L	f	8d\L	.	(16d/LL	.	8.d/L	.	2.ryy	2.ryy	2.ryy	2.ryy
.	.	.	.	16a/)	.	.	.	.	.	.	.
8D\	.	8d\	.	(16f/	.	.	.	.	.	.	.
!	!	!	!	!	!	!LO:N:vis=32.	!	!	!	!	!
.	.	.	.	16a/JJ)	.	32e/LL	.	.	.	.	.
.	.	.	f	.	.	(32f/JJJ	.	.	.	.	.
8A\	.	8a\	.	(16A/LL	.	4e/)	.	.	.	.	.
.	.	.	.	16e/)	.	.	.	.	.	.	.
8G\	.	8g\	.	(16c#X/	.	.	.	.	.	.	.
.	.	.	.	16e/JJ)	.	.	.	.	.	.	.
8F\	.	8f\	.	(16A/LL	.	4r	.	.	.	.	.
.	.	.	.	16e/)	.	.	.	.	.	.	.
8E\J	.	8e\J	.	(16c#X/	.	.	.	.	.	.	.
.	.	.	.	16e/JJ)	.	.	.	.	.	.	.
!	!	!	!	!	!	!LO:LB:g=original	!	!	!	!	!
=5	=5	=5	=5	=5	=5	=5	=5	=5	=5	=5	=5
*tremolo	*	*tremolo	*	*	*	*	*	*	*	*	*
*	*	*2\right	*	*	*	*	*	*	*	*	*
!	!LO:DY:t=p	!	!	!	!	!	!	!	!	!	!
8D\L	p	8d\L	.	(16d/LL	p	8d/L	.	2.ryy	2.ryy	2.ryy	2.ryy
.	.	.	.	16a/)	.	.	.	.	.	.	.
!	!	!	!	!	!	!	!LO:DY:t=p.&colon;	!	!	!	!
8D\	.	8d\	.	(16f/	.	8f/J	p	.	.	.	.
.	.	.	.	16a/JJ)	.	.	.	.	.	.	.
8D\	.	8d\	.	(16d/LL	.	4a/	f	.	.	.	.
.	.	.	.	16a/)	f	.	.	.	.	.	.
8D\	.	8d\	.	(16f/	.	.	.	.	.	.	.
.	.	.	.	16a/JJ)	.	.	.	.	.	.	.
8D\	.	8d\	.	(16d/LL	.	16g/LL	.	.	.	.	.
.	.	.	.	16a/)	.	(16f/	.	.	.	.	.
!	!	!	!	!	!	!	!LO:DY:t=p&colon;	!	!	!	!
8D\J	.	8d\J	.	(16f/	.	16e/)	p	.	.	.	.
.	.	.	.	16a/JJ)	.	16d/JJ	.	.	.	.	.
!LO:LB:g=original	!	!LO:LB:g=original	!	!LO:LB:g=original	!	!	!	!	!	!	!
=6	=6	=6	=6	=6	=6	=6	=6	=6	=6	=6	=6
8D\L	.	8d\L	p	(16d/LL	.	8g/L	.	2.ryy	2.ryy	2.ryy	2.ryy
!	!	!	!	!	!	!	!LO:DY:t=p&colon;	!	!	!	!
.	.	.	.	16b-/)	.	.	p	.	.	.	.
8D\	.	8d\	.	(16g/	.	8b-/J	.	.	.	.	.
.	.	.	.	16b-/JJ)	.	.	.	.	.	.	.
8D\	.	8d\	.	(16d/LL	.	4dd\	f	.	.	.	.
.	.	.	.	16b-/)	f	.	.	.	.	.	.
8D\	.	8d\	f	(16g/	.	.	.	.	.	.	.
.	.	.	.	16b-/JJ)	.	.	.	.	.	.	.
8D\	.	8d\	.	(16d/LL	.	(16cc\LL	.	.	.	.	.
!	!	!	!	!	!	!	!LO:DY:t=p.&colon;	!	!	!	!
.	.	.	.	16b-/)	.	16b-\)	p	.	.	.	.
8D\J	.	8d\J	.	(16g/	p	16a\	.	.	.	.	.
.	.	.	.	16b-/JJ)	.	16g\JJ	.	.	.	.	.
*Xtremolo	*	*Xtremolo	*	*	*	*	*	*	*	*	*
=7	=7	=7	=7	=7	=7	=7	=7	=7	=7	=7	=7
8D/L	.	8d\L	.	(16d/LL	.	8.a/L	.	2.ryy	2.ryy	2.ryy	2.ryy
.	.	.	.	16a/)	.	.	.	.	.	.	.
8D/	.	8d\	.	(16f/	p	.	.	.	.	.	.
.	.	.	.	16a/JJ)	.	16b-/Jk	.	.	.	.	.
8D/	.	8d\	.	(16d/LL	.	8a/L	.	.	.	.	.
.	.	.	.	16a/)	.	.	.	.	.	.	.
8D/	.	8d\	.	(16f/	f	8f/	.	.	.	.	.
.	.	.	.	16a/JJ)	.	.	.	.	.	.	.
8AA/	.	8A\	.	(16c#X/LL	.	8g/	.	.	.	.	.
.	.	.	.	16a/)	.	.	.	.	.	.	.
8AA/J	.	8A\J	.	(16e/	.	8e/J	.	.	.	.	.
.	.	.	.	16a/JJ)	.	.	.	.	.	.	.
=8	=8	=8	=8	=8	=8	=8	=8	=8	=8	=8	=8
4D/	f	4d\	.	4a 4f 4d/	.	8.d/L	f	2.ryy	2.ryy	2.ryy	2.ryy
.	.	.	.	.	.	(32e/LL	.	.	.	.	.
.	.	.	.	.	.	32f/JJJ)	.	.	.	.	.
4AA/	.	4A\	.	4a 4e 4c#X/	.	4e/	.	.	.	.	.
4r	.	4r	.	4r	.	4r	.	.	.	.	.
=9	=9	=9	=9	=9	=9	=9	=9	=9	=9	=9	=9
*	*	*	*	*2\right	*	*2\right	*	*	*	*	*
8r	.	8r	.	2ff\	p	2aa\	p	2.ryy	2.ryy	2.ryy	2.ryy
8F\L	.	8f\L	p	.	.	.	.	.	.	.	.
!	!LO:DY:t=p.&colon;	!	!	!	!	!	!	!	!	!	!
8A\	p	8a\	.	.	.	.	.	.	.	.	.
8F\	.	8f\	.	.	.	.	.	.	.	.	.
8c\	.	8cc\	.	4ee\	.	4gg\	.	.	.	.	.
8C\J	.	8c\J	.	.	.	.	.	.	.	.	.
=10	=10	=10	=10	=10	=10	=10	=10	=10	=10	=10	=10
8r	.	8r	.	2dd\	.	2ff\	.	2.ryy	2.ryy	2.ryy	2.ryy
!	!	!LO:TX:a:t=P:problem:mixed beam	!	!	!	!	!	!	!	!	!
8D\L	.	8d\L	.	.	.	.	.	.	.	.	.
8F\	.	8f\	.	.	.	.	.	.	.	.	.
8D\	.	8d\	.	.	.	.	.	.	.	.	.
8A\	.	8a\	.	4cc\	.	4ee\	.	.	.	.	.
8AA\J	.	8A/J	.	.	.	.	.	.	.	.	.
=11	=11	=11	=11	=11	=11	=11	=11	=11	=11	=11	=11
8r	.	8r	.	2b-\	.	2dd\	.	2.ryy	2.ryy	2.ryy	2.ryy
!LO:TX:a:t=P:problem:mixed beam	!	!LO:TX:a:t=P:problem:mixed beam	!	!	!	!	!	!	!	!	!
8BB-\L	.	8B-\L	.	.	.	.	.	.	.	.	.
8D\	.	8d\	.	.	.	.	.	.	.	.	.
!	!LO:DY:t=f	!	!	!	!	!	!	!	!	!	!
8BB-\	f	8B-\	.	.	.	.	.	.	.	.	.
8F\	.	8f\	.	4a\	.	4cc\	.	.	.	.	.
8FF/J	p	8F/J	.	.	.	.	.	.	.	.	.
=12	=12	=12	=12	=12	=12	=12	=12	=12	=12	=12	=12
!	!	!	!	!LO:TX:a:t=t.	!	!	!	!	!	!	!
.	.	.	.	8qqa/	.	8qqcc/	.	.	.	.	.
4C/	.	4c\	.	4g/	.	4b-/	.	2.ryy	2.ryy	2.ryy	2.ryy
!LO:TX:a:t=P:problem:mixed beam	!	!LO:TX:a:t=P:problem:mixed beam	!	!	!	!	!	!	!	!	!
8FF/L	.	8F/L	.	4f/	.	4a/	.	.	.	.	.
8F\	.	8f\	.	.	.	.	.	.	.	.	.
8AA/	.	8G/	.	4r	.	4r	.	.	.	.	.
8F\J	.	8f\J	.	.	.	.	.	.	.	.	.
!	!	!	!	!	!	!LO:LB:g=original	!	!	!	!	!
=13	=13	=13	=13	=13	=13	=13	=13	=13	=13	=13	=13
!	!	!	!	!LO:TX:a:t=1	!	!	!	!	!	!	!
.	.	.	.	.	.	8qqdd/	.	.	.	.	.
8AA/L	.	8f\L	.	2.r	.	8.cc\L	.	2.ryy	2.ryy	2.ryy	2.ryy
8AA/	.	8f\	.	.	.	.	.	.	.	.	.
.	.	.	.	.	.	(32b-\LL	.	.	.	.	.
.	.	.	.	.	.	32cc\JJJ)	.	.	.	.	.
8BB-/	.	8f\	.	.	.	4dd\	.	.	.	.	.
8BB-/	.	8f\	.	.	.	.	.	.	.	.	.
8BBn/	.	8d\	.	.	.	4f/	.	.	.	.	.
8BB/J	.	8d\J	.	.	.	.	.	.	.	.	.
!LO:LB:g=original	!	!LO:LB:g=original	!	!	!	!	!	!	!	!	!
=14	=14	=14	=14	=14	=14	=14	=14	=14	=14	=14	=14
*	*	*tremolo	*	*	*	*	*	*	*	*	*
8C/L	.	8G/L	.	4c/	.	16f/LL	.	2.ryy	2.ryy	2.ryy	2.ryy
.	.	.	.	.	.	16e/	.	.	.	.	.
8C/	.	8G/	.	.	.	16a/	.	.	.	.	.
.	.	.	.	.	.	16g/JJ	.	.	.	.	.
8C/	.	8G/	.	(8e/L	.	4g/	.	.	.	.	.
8C/	.	8G/	.	8c/)	.	.	.	.	.	.	.
8BB-X/	.	8G/	.	(8g/	.	4r	.	.	.	.	.
8BB-/J	.	8G/J	.	8f/J)	.	.	.	.	.	.	.
*	*	*Xtremolo	*	*	*	*	*	*	*	*	*
!	!	!	!	!LO:LB:g=original	!	!	!	!	!	!	!
=15	=15	=15	=15	=15	=15	=15	=15	=15	=15	=15	=15
.	.	.	.	.	.	8qqdd/	.	.	.	.	.
8AA/L	.	8f\L	.	4f/	.	8.cc\L	.	2.ryy	2.ryy	2.ryy	2.ryy
8AA/	.	8f\	.	.	.	.	.	.	.	.	.
.	.	.	.	.	.	(32b-\LL	.	.	.	.	.
.	.	.	.	.	.	32cc\JJJ)	.	.	.	.	.
8BB-X/	.	8f\	.	4r	.	4dd\	.	.	.	.	.
8BB-/	.	8f\	.	.	.	.	.	.	.	.	.
8BBn/	.	8d\	.	4r	.	4f/	.	.	.	.	.
8BB/J	.	8d\J	.	.	.	.	.	.	.	.	.
=16	=16	=16	=16	=16	=16	=16	=16	=16	=16	=16	=16
8C\L	.	4G/	.	4c/	.	(16f/LL	.	2.ryy	2.ryy	2.ryy	2.ryy
.	.	.	.	.	.	16e/)	.	.	.	.	.
8C\	.	.	.	.	.	(16a/	.	.	.	.	.
.	.	.	.	.	.	16g/JJ)	.	.	.	.	.
8c\	.	4c\	.	16e/LL	.	4g/	.	.	.	.	.
.	.	.	.	16f/	.	.	.	.	.	.	.
8B-X\	.	.	.	16g/	.	.	.	.	.	.	.
.	.	.	.	16g/JJ	.	.	.	.	.	.	.
8A\	.	4r	.	16g/LL	.	4r	.	.	.	.	.
.	.	.	.	16a/	.	.	.	.	.	.	.
8G\J	.	.	.	16a/	.	.	.	.	.	.	.
.	.	.	.	16b-/JJ	.	.	.	.	.	.	.
=17	=17	=17	=17	=17	=17	=17	=17	=17	=17	=17	=17
!	!LO:DY:t=f	!LO:TX:a:t=1	!	!LO:TX:a:t=P:problem:mixed beam	!	!	!	!	!	!	!
8F\L	f	2.r	.	16cc\LL	f	4aa\	f	2.ryy	2.ryy	2.ryy	2.ryy
.	.	.	.	16c/	.	.	.	.	.	.	.
8C\	.	.	.	16c/	.	.	.	.	.	.	.
.	.	.	.	16c/JJ	.	.	.	.	.	.	.
*	*	*	*	*tremolo	*	*	*	*	*	*	*
!	!	!	!	!	!LO:DY:a	!	!	!	!	!	!
8G\	.	.	.	16c/LL	p	8bb-\L	.	.	.	.	.
.	.	.	.	16c/	.	.	.	.	.	.	.
!	!LO:DY:t=p	!	!	!	!	!	!	!	!	!	!
8C\	p	.	.	16c/	.	8gg\	.	.	.	.	.
.	.	.	.	16c/	.	.	.	.	.	.	.
8G\	.	.	.	16c/	.	(8ff\	.	.	.	.	.
.	.	.	.	16c/	.	.	.	.	.	.	.
8C\J	.	.	.	16c/	.	8ee\J)	.	.	.	.	.
.	.	.	.	16c/JJ	.	.	.	.	.	.	.
=18	=18	=18	=18	=18	=18	=18	=18	=18	=18	=18	=18
!	!	!	!LO:DY:a	!	!	!	!	!	!	!	!
8A\L	f	8f\L	f	16c/LL	f	2ccc\	f	2.ryy	2.ryy	2.ryy	2.ryy
.	.	.	.	16c/	.	.	.	.	.	.	.
8C\	.	8c\	.	16c/	.	.	.	.	.	.	.
.	.	.	.	16c/JJ	.	.	.	.	.	.	.
!	!	!	!LO:DY:a	!	!	!	!	!	!	!	!
8A\	.	8f\	p	16c/LL	p	.	.	.	.	.	.
.	.	.	.	16c/	.	.	.	.	.	.	.
8C\	p	8c\	.	16c/	.	.	.	.	.	.	.
.	.	.	.	16c/	.	.	.	.	.	.	.
8E\	.	8g\	.	16c/	.	4r	.	.	.	.	.
.	.	.	.	16c/	.	.	.	.	.	.	.
8C\J	.	8c\J	.	16c/	.	.	.	.	.	.	.
.	.	.	.	16c/JJ	.	.	.	.	.	.	.
=19	=19	=19	=19	=19	=19	=19	=19	=19	=19	=19	=19
!	!	!	!	!	!LO:DY:a	!	!	!	!	!	!
8F\L	f	8a\L	f	16c/LL	f	4aa\	f	2.ryy	2.ryy	2.ryy	2.ryy
.	.	.	.	16c/	.	.	.	.	.	.	.
8C\	.	8c\	.	16c/	.	.	.	.	.	.	.
.	.	.	.	16c/JJ	.	.	.	.	.	.	.
!	!	!	!	!	!LO:DY:a	!	!	!	!	!	!
8G\	p	8f\	.	16c/LL	p	(8bb-\L	p	.	.	.	.
.	.	.	.	16c/	.	.	.	.	.	.	.
8C\	.	8c\	p	16c/	.	8gg\)	.	.	.	.	.
.	.	.	.	16c/	.	.	.	.	.	.	.
8G\	.	8e\	.	16c/	.	(8ff\	.	.	.	.	.
.	.	.	.	16c/	.	.	.	.	.	.	.
8C\J	.	8c\J	.	16c/	.	8ee\J)	.	.	.	.	.
.	.	.	.	16c/JJ	.	.	.	.	.	.	.
!	!	!	!	!	!	!LO:LB:g=original	!	!	!	!	!
=20	=20	=20	=20	=20	=20	=20	=20	=20	=20	=20	=20
!	!	!LO:TX:a:t=P:problem:tt. 18-19 zapisane repetycją	!LO:DY:a	!	!LO:DY:a	!	!	!	!	!	!
8A\L	f	8f\Lyy	f	16c/LL	f	2ccc\	f	2.ryy	2.ryy	2.ryy	2.ryy
.	.	.	.	16c/	.	.	.	.	.	.	.
8C\	.	8c\yy	.	16c/	.	.	.	.	.	.	.
.	.	.	.	16c/JJ	.	.	.	.	.	.	.
!	!	!	!LO:DY:a	!	!LO:DY:a	!	!	!	!	!	!
8A\	.	8f\yy	p	16c/LL	p	.	.	.	.	.	.
.	.	.	.	16c/	.	.	.	.	.	.	.
8C\	.	8c\yy	.	16c/	.	.	.	.	.	.	.
.	.	.	.	16c/	.	.	.	.	.	.	.
8E\	.	8g\yy	.	16c/	.	4r	.	.	.	.	.
.	.	.	.	16c/	.	.	.	.	.	.	.
8C\J	.	8c\Jyy	.	16c/	.	.	.	.	.	.	.
.	.	.	.	16c/JJ	.	.	.	.	.	.	.
=21	=21	=21	=21	=21	=21	=21	=21	=21	=21	=21	=21
!	!	!	!	!	!LO:DY:a	!	!	!	!	!	!
8F\L	f	8a\Lyy	f	16c/LL	f	4aa\	f	2.ryy	2.ryy	2.ryy	2.ryy
.	.	.	.	16c/	.	.	.	.	.	.	.
8C\	.	8c\yy	.	16c/	.	.	.	.	.	.	.
.	.	.	.	16c/JJ	.	.	.	.	.	.	.
!	!	!	!	!	!LO:DY:a	!	!	!	!	!	!
8G\	.	8f\yy	.	16c/LL	p	(8bb-\L	.	.	.	.	.
.	.	.	.	16c/	.	.	.	.	.	.	.
8C\	p	8c\yy	p	16c/	.	8gg\)	p	.	.	.	.
.	.	.	.	16c/	.	.	.	.	.	.	.
8G\	.	8e\yy	.	16c/	.	(8ff\	.	.	.	.	.
.	.	.	.	16c/	.	.	.	.	.	.	.
8C\J	.	8c\Jyy	.	16c/	.	8ee\J)	.	.	.	.	.
.	.	.	.	16c/JJ	.	.	.	.	.	.	.
!LO:LB:g=original	!	!	!	!	!	!	!	!	!	!	!
=22	=22	=22	=22	=22	=22	=22	=22	=22	=22	=22	=22
!LO:TX:a:t=P:problem:mixed beam	!	!LO:TX:a:t=P:problem:przed tym taktem skreślony takt	!LO:DY:t=f	!	!LO:DY:a	!	!	!	!	!	!
8A\L	.	8f\L	f	16f/LL	f	4ccc\	f	2.ryy	2.ryy	2.ryy	2.ryy
!	!LO:DY:t=f	!	!	!	!	!	!	!	!	!	!
.	f	.	.	16f/	.	.	.	.	.	.	.
8A\	.	8f\	.	16f/	.	.	.	.	.	.	.
.	.	.	.	16f/JJ	.	.	.	.	.	.	.
8B-\	.	8b-\	.	16g/LL	.	(8ddd\L	.	.	.	.	.
.	.	.	.	16g/	.	.	.	.	.	.	.
!	!LO:DY:t=p	!	!	!	!	!	!	!	!	!	!
8B-\	p	8b-\	p	16g/	.	8bb-\)	.	.	.	.	.
.	.	.	.	16g/	.	.	.	.	.	.	.
8BB-/	.	8B-\	.	16g/	.	(8aa\	.	.	.	.	.
.	.	.	.	16g/	.	.	.	.	.	.	.
8BB-/J	.	8B-\J	.	16g/	.	8gg\J)	.	.	.	.	.
.	.	.	.	16g/JJ	.	.	.	.	.	.	.
*	*	*	*	*Xtremolo	*	*	*	*	*	*	*
!	!	!LO:LB:g=original	!	!	!	!	!	!	!	!	!
=23	=23	=23	=23	=23	=23	=23	=23	=23	=23	=23	=23
*tremolo	*	*tremolo	*	*	*	*	*	*	*	*	*
8C/L	f	8c\L	.	4f/	.	8.ccc\L	.	2.ryy	2.ryy	2.ryy	2.ryy
8C/	.	8c\	.	.	.	.	.	.	.	.	.
.	.	.	.	.	.	16ddd\Jk	.	.	.	.	.
8C/	.	8c\	.	4a/	.	4ff\	.	.	.	.	.
8C/	.	8c\	.	.	.	.	.	.	.	.	.
8C/	.	8c\	.	4g/	.	4ee\	.	.	.	.	.
8C/J	.	8c\J	.	.	.	.	.	.	.	.	.
!	!	!	!	!LO:LB:g=original	!	!	!	!	!	!	!
=24	=24	=24	=24	=24	=24	=24	=24	=24	=24	=24	=24
8F\L	.	8f\L	p	2f/	.	8.ff\L	.	2.ryy	2.ryy	2.ryy	2.ryy
8F\	.	8f\	.	.	.	.	.	.	.	.	.
.	.	.	.	.	.	32aa\LL	p	.	.	.	.
.	.	.	.	.	.	32gg\JJJ	.	.	.	.	.
8F\	.	8f\	.	.	.	8ff\L	.	.	.	.	.
8F\J	.	8f\	.	.	.	8ff\	.	.	.	.	.
*Xtremolo	*	*	*	*	*	*	*	*	*	*	*
8E\L	.	8f\	.	4r	.	8ff\	.	.	.	.	.
8E\J	.	8f\J	.	.	.	8ff\J	.	.	.	.	.
=25	=25	=25	=25	=25	=25	=25	=25	=25	=25	=25	=25
*tremolo	*	*	*	*tremolo	*	*	*	*	*	*	*
!	!	!	!	!LO:TX:a:t=P:problem:niejednoznaczny zapis tremolo	!	!	!	!	!	!	!
8D\L	.	8f\L	.	8f/L	.	8.ff\L	.	2.ryy	2.ryy	2.ryy	2.ryy
8D\	.	8f\	.	8f/	.	.	.	.	.	.	.
.	.	.	.	.	.	32aa\LL	<	.	.	.	.
.	.	.	.	.	.	32gg\JJJ	.	.	.	.	.
8D\	.	8f\	.	8f/	.	8ff\L	.	.	.	.	.
8D\J	.	8f\	.	8f/J	.	8ff\	.	.	.	.	.
*Xtremolo	*	*	*	*	*	*	*	*	*	*	*
8C\L	.	8f\	.	8e/L	.	8ff\	.	.	.	.	.
8C\J	.	8f\J	.	8e/J	.	8ff\J	.	.	.	.	.
=26	=26	=26	=26	=26	=26	=26	=26	=26	=26	=26	=26
*tremolo	*	*	*	*	*	*	*	*	*	*	*
!	!	!	!LO:HP:b:t=Cres&colon;	!	!	!	!	!	!	!	!
8BB-/L	.	8f\L	<	8d/L	.	8.gg\L	.	2.ryy	2.ryy	2.ryy	2.ryy
8BB-/	.	8f\	.	8d/	.	.	.	.	.	.	.
.	.	.	.	.	.	(32bb-\LL	.	.	.	.	.
.	.	.	.	.	.	32aa\JJJ)	.	.	.	.	.
8BB-/	.	8f\	.	8d/	.	8gg\L	.	.	.	.	.
8BB-/J	.	8f\	.	8d/	.	8gg\	.	.	.	.	.
*Xtremolo	*	*	*	*	*	*	*	*	*	*	*
8BBn/L	.	8f\	.	8d/	.	8gg\	.	.	.	.	.
8BB/J	.	8f\J	.	8d/J	.	8gg\J	.	.	.	.	.
*	*	*	*	*Xtremolo	*	*	*	*	*	*	*
!	!	!	!	!	!	!LO:LB:g=original	!	!	!	!	!
=27	=27	=27	=27	=27	=27	=27	=27	=27	=27	=27	=27
8C\L	.	8c\L	f	(16c/LL	.	4gg\	f	2.ryy	2.ryy	2.ryy	2.ryy
.	.	.	.	16g/)	f	.	.	.	.	.	.
!	!LO:DY:t=f	!	!	!	!	!	!	!	!	!	!
8C\	f	8c\	.	(16e/	.	.	.	.	.	.	.
.	.	.	.	16g/JJ)	.	.	.	.	.	.	.
8E\	.	8c\	.	(16c/LL	.	4b-\	p	.	.	.	.
.	.	.	.	16g/)	.	.	.	.	.	.	.
8E\	p	8c\	.	(16e/	.	.	.	.	.	.	.
.	.	.	.	16g/JJ)	.	.	.	.	.	.	.
8F\	.	8c\	.	(16c/LL	.	4a\	.	.	.	.	.
.	.	.	.	16a/)	.	.	.	.	.	.	.
8F\J	.	8c\J	.	(16f/	.	.	.	.	.	.	.
.	.	.	.	16a/JJ)	.	.	.	.	.	.	.
=28	=28	=28	=28	=28	=28	=28	=28	=28	=28	=28	=28
!	!LO:DY:a:t=f	!	!	!	!	!	!	!	!	!	!
8C\L	f	8c\L	.	(16c/LL	.	4gg\	f	2.ryy	2.ryy	2.ryy	2.ryy
.	.	.	.	16g/)	.	.	.	.	.	.	.
8C\	.	8c\	.	(16e/	f	.	.	.	.	.	.
.	.	.	.	16g/JJ)	.	.	.	.	.	.	.
!	!LO:DY:a	!	!	!	!	!	!	!	!	!	!
8E\	p	8c\	.	16c/LL	.	4b-\	p	.	.	.	.
.	.	.	.	16g/	.	.	.	.	.	.	.
!	!	!	!	!	!LO:DY:t=p&colon;	!	!	!	!	!	!
8E\	.	8c\	.	16e/	p	.	.	.	.	.	.
.	.	.	.	16g/JJ	.	.	.	.	.	.	.
8F\	.	8c\	.	16c/LL	.	4a\	.	.	.	.	.
.	.	.	.	16a/	.	.	.	.	.	.	.
8F\J	.	8c\J	.	16f/	.	.	.	.	.	.	.
.	.	.	.	16a/JJ	.	.	.	.	.	.	.
*	*	*Xtremolo	*	*	*	*	*	*	*	*	*
=29	=29	=29	=29	=29	=29	=29	=29	=29	=29	=29	=29
!LO:TX:a:t=P:problem:mixed beam	!	!	!	!	!	!	!	!	!	!	!
.	.	.	.	8qqcc/	.	8qqee/	.	.	.	.	.
8B-\L	.	8d\L	.	8.b-/L	.	(8dd\L	.	2.ryy	2.ryy	2.ryy	2.ryy
8B-\	.	8d\	.	.	.	16cc\L)	.	.	.	.	.
.	.	.	.	(32a/LL	.	16b-\JJ	.	.	.	.	.
.	.	.	.	32g/JJJ)	.	.	.	.	.	.	.
8c\	.	8c\	.	4f/	.	4a/	.	.	.	.	.
8c\	f	8c\	.	.	.	.	.	.	.	.	.
!	!	!	!	!LO:TX:a:B:t=t	!	!	!	!	!	!	!
8C/	.	8B-\	.	4e/	.	4g/	.	.	.	.	.
8C/J	.	8B-\J	.	.	.	.	.	.	.	.	.
!LO:LB:g=original	!	!	!	!	!	!	!	!	!	!	!
=30	=30	=30	=30	=30	=30	=30	=30	=30	=30	=30	=30
!LO:TX:a:t=P:problem:mixed beam	!	!	!	!	!	!	!	!	!	!	!
8FF/L	.	2.A/	.	2.f/	.	2.f/	.	2.ryy	2.ryy	2.ryy	2.ryy
8F\	.	.	.	.	.	.	.	.	.	.	.
8C\	.	.	.	.	.	.	.	.	.	.	.
8AA\J	.	.	.	.	.	.	.	.	.	.	.
4FF/	.	.	.	.	.	.	.	.	.	.	.
=31:|!|:	=31:|!|:	=31:|!|:	=31:|!|:	=31:|!|:	=31:|!|:	=31:|!|:	=31:|!|:	=31:|!|:	=31:|!|:	=31:|!|:	=31:|!|:
8r	.	8r	.	8r	.	2.cc\	p	2.ryy	2.ryy	2.ryy	2.ryy
!	!	!	!	!	!LO:DY:a	!	!	!	!	!	!
8C/L	.	8g\L	.	8e/L	p	.	.	.	.	.	.
8C/	p	8g\	.	8e/	.	.	.	.	.	.	.
8C/	.	8g\	.	8e/	.	.	.	.	.	.	.
8C/	.	8g\	.	8e/	.	.	.	.	.	.	.
8C/J	.	8g\J	.	8e/J	.	.	.	.	.	.	.
!	!	!LO:LB:g=original	!	!LO:LB:g=original	!	!	!	!	!	!	!
=32	=32	=32	=32	=32	=32	=32	=32	=32	=32	=32	=32
8r	.	8r	.	8r	.	2.ee-X\	.	2.ryy	2.ryy	2.ryy	2.ryy
8C/L	.	8g\L	.	8a/L	.	.	.	.	.	.	.
8C/	.	8g\	.	8a/	.	.	.	.	.	.	.
8C/	.	8g\	.	8a/	.	.	.	.	.	.	.
8C/	.	8g\	.	8a/	.	.	.	.	.	.	.
8C/J	.	8g\J	.	8a/J	.	.	.	.	.	.	.
=33	=33	=33	=33	=33	=33	=33	=33	=33	=33	=33	=33
8D/L	.	8f#X\L	.	2d/	f	4f#X/	.	2.ryy	2.ryy	2.ryy	2.ryy
8D/	.	8f#\	.	.	.	.	.	.	.	.	.
8BB-/	f	8d\	.	.	.	4g/	f	.	.	.	.
8BB-/	.	8d\	.	.	.	.	.	.	.	.	.
8FF#X/	.	8d\	.	4c/	.	4a/	.	.	.	.	.
8FF#/J	.	8d\J	.	.	.	.	.	.	.	.	.
=34	=34	=34	=34	=34	=34	=34	=34	=34	=34	=34	=34
!LO:TX:a:t=P:problem:mixed beam	!	!	!	!	!	!	!	!	!	!	!
8GG/L	.	2d\	.	8.B-/L	.	8.b-\L	.	2.ryy	2.ryy	2.ryy	2.ryy
8G\	.	.	.	.	.	.	.	.	.	.	.
.	.	.	.	16A/Jk	.	16cc\Jk	.	.	.	.	.
8D\	.	.	.	4G/	.	4dd\	.	.	.	.	.
8BB-\J	.	.	.	.	.	.	.	.	.	.	.
4GG/	.	4r	.	4r	.	4r	.	.	.	.	.
=35	=35	=35	=35	=35	=35	=35	=35	=35	=35	=35	=35
8r	.	8r	.	8r	.	2.dd\	p	2.ryy	2.ryy	2.ryy	2.ryy
!	!	!	!	!	!LO:DY:a:t=p.&colon;p.	!	!	!	!	!	!
8D\L	.	8a\L	.	8f/L	pp	.	.	.	.	.	.
8D\	.	8a\	.	8f/	.	.	.	.	.	.	.
8E\	.	8a\	.	8f/	.	.	.	.	.	.	.
8E\	.	8a\	.	8f/	.	.	.	.	.	.	.
8D\J	.	8a\J	.	8f/J	.	.	.	.	.	.	.
!	!	!	!	!	!	!LO:LB:g=original	!	!	!	!	!
=36	=36	=36	=36	=36	=36	=36	=36	=36	=36	=36	=36
8r	.	8r	.	8r	.	2.ff\	.	2.ryy	2.ryy	2.ryy	2.ryy
8D\L	.	8a\L	.	8bn\L	.	.	.	.	.	.	.
8D\	.	8a\	.	8b\	.	.	.	.	.	.	.
8D\	.	8a\	.	8b\	.	.	.	.	.	.	.
8D\	.	8a\	.	8b\	.	.	.	.	.	.	.
8D\J	.	8a\J	.	8b\J	.	.	.	.	.	.	.
!LO:LB:g=original	!	!	!	!	!	!	!	!	!	!	!
=37	=37	=37	=37	=37	=37	=37	=37	=37	=37	=37	=37
8E/L	.	8g#X\L	.	2e/	.	4g#X/	.	2.ryy	2.ryy	2.ryy	2.ryy
8E/	.	8g#\	.	.	.	.	.	.	.	.	.
8C/	f	8e\	f	.	.	4a/	f	.	.	.	.
8C/	.	8e\	.	.	.	.	.	.	.	.	.
8GG#X/	.	8e\	.	4d/	.	4bn/	.	.	.	.	.
8GG#/J	.	8e\J	.	.	.	.	.	.	.	.	.
=38	=38	=38	=38	=38	=38	=38	=38	=38	=38	=38	=38
8AA/L	.	2e\	.	8.c/L	.	8.cc\L	.	2.ryy	2.ryy	2.ryy	2.ryy
8AA/	.	.	.	.	.	.	.	.	.	.	.
.	.	.	.	16Bn/Jk	.	16dd\Jk	.	.	.	.	.
8C/	.	.	.	4A/	.	4ee\	.	.	.	.	.
8C/	.	.	.	.	.	.	.	.	.	.	.
8AA/	.	4r	.	4r	.	4r	.	.	.	.	.
8AA/J	.	.	.	.	.	.	.	.	.	.	.
=39	=39	=39	=39	=39	=39	=39	=39	=39	=39	=39	=39
*	*	*	*	*tremolo	*	*	*	*	*	*	*
!	!LO:DY:a	!	!LO:DY:t=f	!	!	!	!	!	!	!	!
8D\L	f	8A/L	f	8dd\L	f	(8ff\L	p	2.ryy	2.ryy	2.ryy	2.ryy
8D\	.	8A/	.	8dd\	.	8aa\J)	.	.	.	.	.
8Bn\	.	8d/	.	8dd\	.	8r	.	.	.	.	.
8B\	.	8d/	p	8dd\J	.	8gg\	f	.	.	.	.
8G\	p	8Bn/	.	8dd\L	p	8r	.	.	.	.	.
8G\J	.	8B/J	.	8dd\J	.	8ff\	.	.	.	.	.
!	!	!LO:LB:g=original	!	!LO:LB:g=original	!	!	!	!	!	!	!
=40	=40	=40	=40	=40	=40	=40	=40	=40	=40	=40	=40
!	!	!	!	!	!LO:DY:a	!	!	!	!	!	!
8c\L	f	8G/L	f	16dd\LL	f	(8ee\L	.	2.ryy	2.ryy	2.ryy	2.ryy
.	.	.	.	16dd\	.	.	.	.	.	.	.
8c\	.	8G/	.	16dd\	.	8gg\J)	f	.	.	.	.
.	.	.	.	16dd\JJ	.	.	.	.	.	.	.
!	!	!	!	!	!LO:DY:a	!	!	!	!	!	!
8A\	.	8c/	.	16cc\LL	p	8r	.	.	.	.	.
.	.	.	.	16cc\	.	.	.	.	.	.	.
8A\	p	8c/	p	16cc\	.	8ff\	p	.	.	.	.
.	.	.	.	16cc\	.	.	.	.	.	.	.
8F\	.	8A/	.	16cc\	.	8r	.	.	.	.	.
.	.	.	.	16cc\	.	.	.	.	.	.	.
8F\J	.	8A/J	.	16cc\	.	8ee\	.	.	.	.	.
.	.	.	.	16cc\JJ	.	.	.	.	.	.	.
=41	=41	=41	=41	=41	=41	=41	=41	=41	=41	=41	=41
!	!	!LO:TX:a:t=P:problem:mixed beam	!	!	!	!	!	!	!	!	!
8Bn\L	.	8Bn/L	.	16cc\LL	f	(8dd\L	f	2.ryy	2.ryy	2.ryy	2.ryy
.	.	.	.	16cc\	.	.	.	.	.	.	.
8B\	.	8B/	.	16cc\	.	8ff\J)	.	.	.	.	.
.	.	.	.	16cc\JJ	.	.	.	.	.	.	.
!	!	!LO:SIC:v:s=8bn	!	!	!	!	!	!	!	!	!
8G#X\	.	8b-\	.	16bn\LL	p	8r	.	.	.	.	.
.	.	.	.	16bn\	.	.	.	.	.	.	.
!	!	!LO:SIC:v:s=8bn	!	!	!	!	!	!	!	!	!
8G#\	.	8b-\	.	16bn\	.	8ee\	p	.	.	.	.
.	.	.	.	16bn\	.	.	.	.	.	.	.
8E\	.	8g#X\	.	16bn\	.	8r	.	.	.	.	.
.	.	.	.	16bn\	.	.	.	.	.	.	.
8E\J	.	8g#\J	.	16bn\	.	8dd\	.	.	.	.	.
.	.	.	.	16bn\JJ	.	.	.	.	.	.	.
=42	=42	=42	=42	=42	=42	=42	=42	=42	=42	=42	=42
*tremolo	*	*tremolo	*	*	*	*	*	*	*	*	*
8A\L	.	8a\L	.	(16a\LL	.	2.cc\	.	2.ryy	2.ryy	2.ryy	2.ryy
.	.	.	.	16ee\)	.	.	.	.	.	.	.
8A\	.	8a\	.	(16cc\	.	.	.	.	.	.	.
.	.	.	.	16ee\JJ)	.	.	.	.	.	.	.
8A\	.	8a\	.	(16a\LL	.	.	.	.	.	.	.
.	.	.	.	16ee\)	.	.	.	.	.	.	.
8A\	.	8a\	.	(16cc\	.	.	.	.	.	.	.
.	.	.	.	16ee\JJ)	.	.	.	.	.	.	.
8A\	.	8a\	.	(16a\LL	.	.	.	.	.	.	.
.	.	.	.	16ee\)	.	.	.	.	.	.	.
8A\J	.	8a\J	.	(16cc\	.	.	.	.	.	.	.
.	.	.	.	16ee\JJ)	.	.	.	.	.	.	.
=43	=43	=43	=43	=43	=43	=43	=43	=43	=43	=43	=43
8G\L	.	8g\L	f	(16e/LL	f	2.bb-X\	.	2.ryy	2.ryy	2.ryy	2.ryy
.	.	.	.	16cc#X/)	.	.	.	.	.	.	.
8G\	.	8g\	.	(16g/	.	.	.	.	.	.	.
.	.	.	.	16cc#/JJ)	.	.	.	.	.	.	.
8G\	.	8g\	.	(16e/LL	.	.	.	.	.	.	.
.	.	.	.	16cc#/)	.	.	.	.	.	.	.
8G\	.	8g\	.	(16g/	.	.	.	.	.	.	.
.	.	.	.	16cc#/JJ)	.	.	.	.	.	.	.
8G\	.	8g\	.	(16e/LL	.	.	.	.	.	.	.
.	.	.	.	16cc#/)	.	.	.	.	.	.	.
8G\J	.	8g\J	.	(16g/	.	.	.	.	.	.	.
.	.	.	.	16cc#/JJ)	.	.	.	.	.	.	.
=44	=44	=44	=44	=44	=44	=44	=44	=44	=44	=44	=44
8F\L	.	8f\L	.	(16f/LL	.	2.aa\	.	2.ryy	2.ryy	2.ryy	2.ryy
.	.	.	.	16dd/)	.	.	.	.	.	.	.
8F\	.	8f\	.	(16a/	.	.	.	.	.	.	.
.	.	.	.	16dd/JJ)	.	.	.	.	.	.	.
8F\	.	8f\	.	(16f/LL	.	.	.	.	.	.	.
.	.	.	.	16dd/)	.	.	.	.	.	.	.
8F\	.	8f\	.	(16a/	.	.	.	.	.	.	.
.	.	.	.	16dd/JJ)	.	.	.	.	.	.	.
8F\	.	8f\	.	(16f/LL	.	.	.	.	.	.	.
.	.	.	.	16dd/)	.	.	.	.	.	.	.
8F\J	.	8f\J	.	(16a/	.	.	.	.	.	.	.
.	.	.	.	16dd/JJ)	.	.	.	.	.	.	.
!LO:LB:g=original	!	!	!	!	!	!LO:LB:g=original	!	!	!	!	!
=45	=45	=45	=45	=45	=45	=45	=45	=45	=45	=45	=45
8E\L	.	8e\L	.	(16g#X\LL	.	2.gg#X\	.	2.ryy	2.ryy	2.ryy	2.ryy
.	.	.	.	16dd\)	.	.	.	.	.	.	.
8E\	.	8e\	.	(16bn\	.	.	.	.	.	.	.
.	.	.	.	16dd\JJ)	.	.	.	.	.	.	.
8E\	.	8e\	.	(16g#\LL	.	.	.	.	.	.	.
.	.	.	.	16dd\)	.	.	.	.	.	.	.
8E\	.	8e\	.	(16b\	.	.	.	.	.	.	.
.	.	.	.	16dd\JJ)	.	.	.	.	.	.	.
8E\	.	8e\	.	(16g#\LL	.	.	.	.	.	.	.
.	.	.	.	16dd\)	.	.	.	.	.	.	.
8E\J	.	8e\J	.	(16b\	.	.	.	.	.	.	.
.	.	.	.	16dd\JJ)	.	.	.	.	.	.	.
=46	=46	=46	=46	=46	=46	=46	=46	=46	=46	=46	=46
8D#X\L	.	8d#X\L	.	(16f#X\LL	.	2.ff#X\	.	2.ryy	2.ryy	2.ryy	2.ryy
.	.	.	.	16ccn\)	.	.	.	.	.	.	.
8D#X\	.	8d#X\	.	(16a\	.	.	.	.	.	.	.
.	.	.	.	16cc\JJ)	.	.	.	.	.	.	.
!	!	!	!	!LO:LB:g=original	!	!	!	!	!	!	!
8D#X\	.	8d#X\	.	(16f#\LL	.	.	.	.	.	.	.
.	.	.	.	16cc\)	.	.	.	.	.	.	.
8D#X\	.	8d#X\	.	(16a\	.	.	.	.	.	.	.
.	.	.	.	16cc\JJ)	.	.	.	.	.	.	.
8D#X\	.	8d#X\	.	(16f#\LL	.	.	.	.	.	.	.
.	.	.	.	16cc\)	.	.	.	.	.	.	.
8D#X\J	.	8d#X\J	.	(16a\	.	.	.	.	.	.	.
.	.	.	.	16cc\JJ)	.	.	.	.	.	.	.
*Xtremolo	*	*Xtremolo	*	*	*	*	*	*	*	*	*
=47	=47	=47	=47	=47	=47	=47	=47	=47	=47	=47	=47
!	!LO:DY:t=p&colon;	!	!	!	!	!	!	!	!	!	!
8Dn/L	p	8dn\L	.	16e/LL	p	8ee\	.	2.ryy	2.ryy	2.ryy	2.ryy
.	.	.	.	16e/	.	.	.	.	.	.	.
8D/	.	8d\	.	16e/	.	8r	.	.	.	.	.
.	.	.	.	16e/	.	.	.	.	.	.	.
8D/	.	8d\	.	16e/	.	8g#X/	.	.	.	.	.
.	.	.	.	16e/	.	.	.	.	.	.	.
8D/	f	8d\	.	16e/	.	8r	.	.	.	.	.
.	.	.	.	16e/	.	.	.	.	.	.	.
8C/	.	8c\	.	16e/	.	8a/	.	.	.	.	.
.	.	.	.	16e/	.	.	.	.	.	.	.
8C/J	.	8c\J	.	16e/	.	8r	.	.	.	.	.
.	.	.	.	16e/JJ	.	.	.	.	.	.	.
=48	=48	=48	=48	=48	=48	=48	=48	=48	=48	=48	=48
!LO:TX:a:t=P:problem:mixed beam	!	!	!	!	!	!	!	!	!	!	!
8D\L	.	8d\L	.	8.d/L	.	8.ffn\L	.	2.ryy	2.ryy	2.ryy	2.ryy
8D\	.	8d\	.	.	.	.	.	.	.	.	.
.	.	.	.	16bn/Jk	.	(32ee\LL	.	.	.	.	.
.	.	.	.	.	.	32dd\JJJ)	.	.	.	.	.
8E\	.	8e\	.	4a/	f	4cc\	.	.	.	.	.
8E\	.	8e\	.	.	.	.	.	.	.	.	.
8EE/	.	8e\	.	4g#X/	.	4bn\	.	.	.	.	.
8EE/J	.	8e\J	.	.	.	.	.	.	.	.	.
!	!	!LO:LB:g=original	!	!	!	!	!	!	!	!	!
=49	=49	=49	=49	=49	=49	=49	=49	=49	=49	=49	=49
4AA/	.	4e\	.	4a/	.	4a\	.	2.ryy	2.ryy	2.ryy	2.ryy
!	!	!	!	!LO:N:vis=4	!	!	!	!	!	!	!
4r	.	4r	.	4.a/	.	4.cc\	.	.	.	.	.
4r	.	4r	.	.	.	.	.	.	.	.	.
!	!	!	!	!	!LO:DY:t=p.&colon;	!	!	!	!	!	!
.	.	.	.	(16b-X/LL	p	(16dd\LL	.	.	.	.	.
.	.	.	.	16cc/JJ)	.	16ee-X\JJ)	.	.	.	.	.
=50	=50	=50	=50	=50	=50	=50	=50	=50	=50	=50	=50
4r	.	4r	.	4b-/	f	4dd\	f	2.ryy	2.ryy	2.ryy	2.ryy
4D\	.	4d\	.	4B-/	.	4g/	.	.	.	.	.
4DD/	.	4d\	.	4A/	.	4f#X/	.	.	.	.	.
=51	=51	=51	=51	=51	=51	=51	=51	=51	=51	=51	=51
!	!LO:DY:a	!	!	!	!	!	!	!	!	!	!
4GG/	p	4d\	.	4G/	.	4g/	.	2.ryy	2.ryy	2.ryy	2.ryy
4r	.	4r	.	4.g/	.	4.b-\	.	.	.	.	.
4r	.	4r	.	.	.	.	.	.	.	.	.
.	.	.	.	(16a/LL	p	(16cc\LL	.	.	.	.	.
.	.	.	.	16b-/JJ)	.	16dd\JJ)	.	.	.	.	.
=52	=52	=52	=52	=52	=52	=52	=52	=52	=52	=52	=52
4r	.	4r	.	8a\L	.	8cc\L	.	2.ryy	2.ryy	2.ryy	2.ryy
.	.	.	.	8aa\	f	8aa\	f	.	.	.	.
4GG/	f	4G/	.	8gg\	.	8gg\	.	.	.	.	.
.	.	.	.	8ff\	.	8ff\	.	.	.	.	.
4G\	.	4g\	.	8ee\	.	8ee\	.	.	.	.	.
.	.	.	.	8dd\J	.	8dd\J	.	.	.	.	.
!LO:LB:g=original	!	!	!	!	!	!LO:LB:g=original	!	!	!	!	!
=53	=53	=53	=53	=53	=53	=53	=53	=53	=53	=53	=53
8A\L	.	8a\L	.	8cc#X/L	.	8cc/L	.	2.ryy	2.ryy	2.ryy	2.ryy
8B-\	.	8b-\	.	8b-/	.	8b-/	.	.	.	.	.
8A\	.	8a\	.	8a/	.	8a/	.	.	.	.	.
8G\	.	8g\	.	8g/	.	8g/	.	.	.	.	.
8F\	.	8f\	.	8f/	.	8f/	.	.	.	.	.
8E\J	.	8e\J	.	8e/J	.	8e/J	.	.	.	.	.
=54	=54	=54	=54	=54	=54	=54	=54	=54	=54	=54	=54
*tremolo	*	*tremolo	*	*	*	*	*	*	*	*	*
!	!	!	!	!	!LO:DY:t=p&colon;	!	!	!	!	!	!
8D\L	.	8d\L	f	(16d/LL	p	8d/L	.	2.ryy	2.ryy	2.ryy	2.ryy
.	.	.	.	16a/)	.	.	.	.	.	.	.
!	!	!	!	!	!	!	!LO:DY:t=p&colon;	!	!	!	!
8D\	.	8d\	.	(16f/	.	8f/J	p	.	.	.	.
.	.	.	.	16a/JJ)	.	.	.	.	.	.	.
!	!	!	!	!	!LO:DY:t=f	!	!	!	!	!	!
8D\	.	8d\	.	(16d/LL	f	4a/	.	.	.	.	.
.	.	.	.	16a/)	.	.	.	.	.	.	.
8D\	.	8d\	p	(16f/	.	.	.	.	.	.	.
.	.	.	.	16a/JJ)	.	.	.	.	.	.	.
!	!	!	!	!LO:LB:g=original	!	!	!LO:DY:a	!	!	!	!
8D\	.	8d\	.	(16d/LL	.	16g/LL	p	.	.	.	.
.	.	.	.	16a/)	p	(16f/	.	.	.	.	.
8D\J	.	8d\J	.	(16f/	.	16e/	.	.	.	.	.
.	.	.	.	16a/JJ)	.	16d/JJ)	.	.	.	.	.
=55	=55	=55	=55	=55	=55	=55	=55	=55	=55	=55	=55
!	!	!	!	!	!LO:DY:rj	!	!	!	!	!	!
8D\L	.	8d\L	f	(16d/LL	f	8g/L	.	2.ryy	2.ryy	2.ryy	2.ryy
.	.	.	.	16b-/)	.	.	p	.	.	.	.
8D\	.	8d\	.	(16g/	.	8b-/J	.	.	.	.	.
.	.	.	.	16b-/JJ)	.	.	.	.	.	.	.
!	!	!	!	!	!	!LO:N:vis=4.	!	!	!	!	!
8D\	.	8d\	.	(16d/LL	.	4dd\	.	.	.	.	.
.	.	.	.	16b-/)	.	.	.	.	.	.	.
8D\	.	8d\	p	(16g/	p	.	.	.	.	.	.
.	.	.	.	16b-/JJ)	.	.	.	.	.	.	.
8D\	.	8d\	.	(16d/LL	.	(16cc\LL	.	.	.	.	.
.	.	.	.	16b-/)	.	16b-\	.	.	.	.	.
8D\J	.	8d\J	.	(16g/	.	16a\	.	.	.	.	.
.	.	.	.	16b-/JJ)	.	16g\JJ)	.	.	.	.	.
*Xtremolo	*	*Xtremolo	*	*	*	*	*	*	*	*	*
=56	=56	=56	=56	=56	=56	=56	=56	=56	=56	=56	=56
8D/L	.	8d\L	.	(16d/LL	.	8.a/L	.	2.ryy	2.ryy	2.ryy	2.ryy
.	.	.	.	16a/)	.	.	.	.	.	.	.
8D/	.	8d\	.	(16f/	.	.	.	.	.	.	.
.	.	.	.	16a/JJ)	.	16b-/K	.	.	.	.	.
8D/	.	8d\	.	(16d/LL	.	8a/	.	.	.	.	.
.	.	.	.	16a/)	.	.	.	.	.	.	.
8D/	.	8d\	.	(16f/	.	8f/	.	.	.	.	.
.	.	.	.	16a/JJ)	.	.	.	.	.	.	.
8AA/	.	8A\	.	(16c#X/LL	.	8g/	.	.	.	.	.
.	.	.	.	16a/)	.	.	.	.	.	.	.
8AA/J	.	8A\J	.	(16e/	.	8e/J	.	.	.	.	.
.	.	.	.	16a/JJ)	.	.	.	.	.	.	.
=57	=57	=57	=57	=57	=57	=57	=57	=57	=57	=57	=57
!	!LO:DY:a	!	!	!	!LO:DY:rj	!	!LO:DY:rj	!	!	!	!
8D\L	f	8d\L	.	(16d/LL	f	8.d/L	f	2.ryy	2.ryy	2.ryy	2.ryy
.	.	.	.	16a/)	.	.	.	.	.	.	.
8D\	.	8d\	.	(16f/	.	.	.	.	.	.	.
.	.	.	.	16a/JJ)	.	32e/LL	.	.	.	.	.
.	.	.	.	.	.	32f/JJJ	.	.	.	.	.
8A\	.	8a\	f	(16A/LL	.	4e/	.	.	.	.	.
.	.	.	.	16e/)	.	.	.	.	.	.	.
8G\	.	8g\	.	(16c#X/	.	.	.	.	.	.	.
.	.	.	.	16e/JJ)	.	.	.	.	.	.	.
8F\	.	8f\	.	(16A/LL	.	4r	.	.	.	.	.
.	.	.	.	16e/)	.	.	.	.	.	.	.
8E\J	.	8e\J	.	(16c#/	.	.	.	.	.	.	.
.	.	.	.	16e/JJ)	.	.	.	.	.	.	.
!	!	!LO:LB:g=original	!	!	!	!	!	!	!	!	!
=58	=58	=58	=58	=58	=58	=58	=58	=58	=58	=58	=58
*	*	*tremolo	*	*	*	*	*	*	*	*	*
8D\L	p	8d\L	.	(16d/LL	.	8d/L	p	2.ryy	2.ryy	2.ryy	2.ryy
.	.	.	.	16a/)	.	.	.	.	.	.	.
8D\	.	8d\	.	(16f/	.	8f/J	.	.	.	.	.
.	.	.	.	16a/JJ)	.	.	.	.	.	.	.
8D\	f	8d\	.	(16d/LL	.	4a/	f	.	.	.	.
.	.	.	.	16a/)	f	.	.	.	.	.	.
8D\	.	8d\	.	(16f/	.	.	.	.	.	.	.
.	.	.	.	16a/JJ)	.	.	.	.	.	.	.
8D\	p	8d\	.	(16d/LL	.	16g/LL	p	.	.	.	.
.	.	.	.	16a/)	p	16f/	.	.	.	.	.
8D\J	.	8d\J	.	(16f/	.	16e/	.	.	.	.	.
.	.	.	.	16a/JJ)	.	16d/JJ	.	.	.	.	.
=59	=59	=59	=59	=59	=59	=59	=59	=59	=59	=59	=59
*tremolo	*	*	*	*	*	*	*	*	*	*	*
8D\L	.	8d\L	.	(16d/LL	.	8g/L	p	2.ryy	2.ryy	2.ryy	2.ryy
.	.	.	.	16b-/)	.	.	.	.	.	.	.
8D\	.	8d\	.	(16g/	.	8b-/J	.	.	.	.	.
.	.	.	.	16b-/JJ)	.	.	.	.	.	.	.
8D\	.	8d\	.	(16d/LL	.	4dd\	f	.	.	.	.
.	.	.	.	16b-/)	.	.	.	.	.	.	.
8D\	.	8d\	.	(16g/	.	.	.	.	.	.	.
.	.	.	.	16b-/JJ)	.	.	.	.	.	.	.
!	!	!	!	!	!	!LO:LB:g=original	!	!	!	!	!
8D\	.	8d\	.	(16d/LL	.	(16cc\LL	p	.	.	.	.
.	.	.	.	16b-/)	.	16b-\)	.	.	.	.	.
8D\J	.	8d\J	.	(16g/	.	(16a\	.	.	.	.	.
.	.	.	.	16b-/JJ)	.	16g\JJ)	.	.	.	.	.
*Xtremolo	*	*Xtremolo	*	*	*	*	*	*	*	*	*
!	!	!	!	!LO:LB:g=original	!	!	!	!	!	!	!
=60	=60	=60	=60	=60	=60	=60	=60	=60	=60	=60	=60
8D\L	.	8d\L	.	(16d/LL	.	8.a/L	.	2.ryy	2.ryy	2.ryy	2.ryy
.	.	.	.	16a/)	.	.	.	.	.	.	.
8D\	.	8d\	.	(16f/	.	.	.	.	.	.	.
.	.	.	.	16a/JJ)	.	16b-/K	.	.	.	.	.
8D\	.	8d\	.	(16d/LL	.	8a/	.	.	.	.	.
.	.	.	.	16a/)	.	.	.	.	.	.	.
8D\	.	8d\	.	(16f/	.	8f/	.	.	.	.	.
.	.	.	.	16a/JJ)	.	.	.	.	.	.	.
8AA\	.	8A\	.	16c#X/LL	.	8g/	.	.	.	.	.
.	.	.	.	16a/	.	.	.	.	.	.	.
8AA\J	.	8A\J	.	16e/	.	8e/J	.	.	.	.	.
.	.	.	.	16a/JJ	.	.	.	.	.	.	.
=61	=61	=61	=61	=61	=61	=61	=61	=61	=61	=61	=61
!	!LO:DY:a	!	!	!	!	!	!LO:DY:a	!	!	!	!
8D\L	f	8d\L	.	4a 4f 4d/	.	8.d/L	f	2.ryy	2.ryy	2.ryy	2.ryy
8D\	.	8d\	.	.	.	.	.	.	.	.	.
.	.	.	.	.	.	(32e/LL	.	.	.	.	.
.	.	.	.	.	.	32f/JJJ)	.	.	.	.	.
!	!	!	!	!LO:SIC:v:n=3:s=4c#	!	!	!	!	!	!	!
8A\	.	8a\	f	4a 4e 4c/	.	4e/	.	.	.	.	.
8G\	.	8g\	.	.	.	.	.	.	.	.	.
8F\	.	8f\	.	4r	.	4r	.	.	.	.	.
8E\J	.	8e\J	.	.	.	.	.	.	.	.	.
!LO:LB:g=original	!	!	!	!	!	!	!	!	!	!	!
=62	=62	=62	=62	=62	=62	=62	=62	=62	=62	=62	=62
!	!	!	!	!	!LO:DY:a	!	!	!	!	!	!
8D/L	f	4d\	.	16A/LL	f	4ff\	f	2.ryy	2.ryy	2.ryy	2.ryy
.	.	.	.	16A/	.	.	.	.	.	.	.
8AA/	.	.	.	16A/	.	.	.	.	.	.	.
.	.	.	.	16A/	.	.	.	.	.	.	.
8E/	.	4r	.	16A/	.	(8gg\L	.	.	.	.	.
.	.	.	.	16A/	.	.	.	.	.	.	.
!	!	!	!	!	!LO:DY:a	!	!LO:DY:t=p&colon;	!	!	!	!
8AA/	p	.	.	16A/	p	8ee\)	p	.	.	.	.
.	.	.	.	16A/	.	.	.	.	.	.	.
8E/	.	4r	.	16A/	.	(8dd\	.	.	.	.	.
.	.	.	.	16A/	.	.	.	.	.	.	.
8AA/J	.	.	.	16A/	.	8cc#X\J)	.	.	.	.	.
.	.	.	.	16A/JJ	.	.	.	.	.	.	.
=63	=63	=63	=63	=63	=63	=63	=63	=63	=63	=63	=63
!	!	!	!	!	!LO:DY:a	!	!	!	!	!	!
8F/L	f	8d\L	.	16A/LL	f	2aa\	f	2.ryy	2.ryy	2.ryy	2.ryy
.	.	.	.	16A/	.	.	.	.	.	.	.
8AA/	.	8A\	f	16A/	.	.	.	.	.	.	.
.	.	.	.	16A/	.	.	.	.	.	.	.
8F/	.	8d\	.	16A/	.	.	.	.	.	.	.
.	.	.	.	16A/	.	.	.	.	.	.	.
!	!	!	!	!	!LO:DY:a	!	!	!	!	!	!
8AA/	p	8A\	p	16A/	p	.	.	.	.	.	.
.	.	.	.	16A/	.	.	.	.	.	.	.
8C#X/	.	8e\	.	16A/	.	4r	.	.	.	.	.
.	.	.	.	16A/	.	.	.	.	.	.	.
8AA/J	.	8A\J	.	16A/	.	.	.	.	.	.	.
.	.	.	.	16A/JJ	.	.	.	.	.	.	.
=64	=64	=64	=64	=64	=64	=64	=64	=64	=64	=64	=64
!	!	!	!	!	!LO:DY:a	!	!	!	!	!	!
8D/L	.	8f\L	.	16A/LL	f	4ff\	f	2.ryy	2.ryy	2.ryy	2.ryy
.	.	.	.	16A/	.	.	.	.	.	.	.
8AA/	.	8A\	f	16A/	.	.	.	.	.	.	.
.	.	.	.	16A/	.	.	.	.	.	.	.
8E/	.	8c#X\	p	16A/	.	8gg\L	.	.	.	.	.
.	.	.	.	16A/	.	.	.	.	.	.	.
!	!	!	!	!	!LO:DY:a	!	!	!	!	!	!
8AA/	.	8A\	.	16A/	p	8ee\	p	.	.	.	.
.	.	.	.	16A/	.	.	.	.	.	.	.
8E/	.	8c#\	.	16A/	.	8dd\	.	.	.	.	.
.	.	.	.	16A/	.	.	.	.	.	.	.
8AA/J	.	8A\J	.	16A/	.	8cc#X\J	.	.	.	.	.
.	.	.	.	16A/JJ	.	.	.	.	.	.	.
=65	=65	=65	=65	=65	=65	=65	=65	=65	=65	=65	=65
!	!	!	!	!	!LO:DY:a	!	!	!	!	!	!
8F/L	.	8d\L	.	16A/LL	f	2aa\	.	2.ryy	2.ryy	2.ryy	2.ryy
.	.	.	.	16A/	.	.	.	.	.	.	.
8AA/	.	8A\	f	16A/	.	.	.	.	.	.	.
.	.	.	.	16A/	.	.	.	.	.	.	.
8F/	.	8d\	p	16A/	.	.	.	.	.	.	.
.	.	.	.	16A/	.	.	.	.	.	.	.
!	!	!	!	!	!LO:DY:a	!	!	!	!	!	!
8AA/	p	8A\	.	16A/	p	.	.	.	.	.	.
.	.	.	.	16A/	.	.	.	.	.	.	.
8C#X/	.	8e\	.	16A/	.	4r	.	.	.	.	.
.	.	.	.	16A/	.	.	.	.	.	.	.
8AA/J	.	8A\J	.	16A/	.	.	.	.	.	.	.
.	.	.	.	16A/JJ	.	.	.	.	.	.	.
!	!	!LO:LB:g=original	!	!	!	!	!	!	!	!	!
=66	=66	=66	=66	=66	=66	=66	=66	=66	=66	=66	=66
!	!	!	!	!	!LO:DY:a	!	!	!	!	!	!
8D/L	f	8f\L	.	16A/LL	f	4ff\	f	2.ryy	2.ryy	2.ryy	2.ryy
.	.	.	.	16A/	.	.	.	.	.	.	.
8AA/	.	8A\	.	16A/	.	.	.	.	.	.	.
.	.	.	.	16A/	.	.	.	.	.	.	.
!LO:SIC:v:s=8E	!	!	!	!	!	!	!	!	!	!	!
8D/	.	8c#X\	.	16A/	.	8gg\L	.	.	.	.	.
.	.	.	.	16A/	.	.	.	.	.	.	.
!	!	!	!	!	!LO:DY:a	!	!	!	!	!	!
8AA/	p	8A\	.	16A/	p	8ee\	p	.	.	.	.
.	.	.	.	16A/	.	.	.	.	.	.	.
8E/	.	8c#\	.	16A/	.	8dd\	.	.	.	.	.
.	.	.	.	16A/	.	.	.	.	.	.	.
!	!	!	!	!	!	!LO:SIC:v:s=8cc#	!	!	!	!	!
8AA/J	.	8A\J	.	16A/	.	8cc\J	.	.	.	.	.
.	.	.	.	16A/JJ	.	.	.	.	.	.	.
!	!	!	!	!	!	!LO:LB:g=original	!	!	!	!	!
=67	=67	=67	=67	=67	=67	=67	=67	=67	=67	=67	=67
!	!	!LO:TX:a:t=P:problem:mixed beam	!	!	!	!	!	!	!	!	!
8F\L	f	8d\L	.	16d/LL	.	4aa\	f	2.ryy	2.ryy	2.ryy	2.ryy
.	.	.	.	16d/	.	.	.	.	.	.	.
8F\	.	8d\	f	16d/	.	.	.	.	.	.	.
.	.	.	.	16d/	.	.	.	.	.	.	.
8G\	.	8g\	.	16d/	.	8bb-\L	p	.	.	.	.
.	.	.	.	16d/	.	.	.	.	.	.	.
8G\	p	8g\	p	16d/	.	8gg\	.	.	.	.	.
.	.	.	.	16d/	.	.	.	.	.	.	.
8G\	.	8G/	.	16d/	.	8ff\	.	.	.	.	.
.	.	.	.	16d/	.	.	.	.	.	.	.
8G\J	.	8G/J	.	16d/	.	8ee\J	.	.	.	.	.
.	.	.	.	16d/JJ	.	.	.	.	.	.	.
*	*	*	*	*Xtremolo	*	*	*	*	*	*	*
=68	=68	=68	=68	=68	=68	=68	=68	=68	=68	=68	=68
*tremolo	*	*tremolo	*	*	*	*	*	*	*	*	*
!	!	!	!	!	!LO:DY:a	!	!	!	!	!	!
8A\L	f	8A/L	.	4d/	f	8.aa\L	.	2.ryy	2.ryy	2.ryy	2.ryy
8A\	.	8A/	.	.	.	.	.	.	.	.	.
.	.	.	.	.	.	16bb-\Jk	.	.	.	.	.
8A\	.	8A/	.	4f/	.	4dd\	.	.	.	.	.
8A\	.	8A/	.	.	.	.	.	.	.	.	.
8A\	.	8A/	.	4e/	.	4cc#X\	.	.	.	.	.
8A\J	.	8A/J	.	.	.	.	.	.	.	.	.
*Xtremolo	*	*	*	*	*	*	*	*	*	*	*
=69	=69	=69	=69	=69	=69	=69	=69	=69	=69	=69	=69
!	!LO:DY:a	!	!	!	!	!	!	!	!	!	!
8D\L	p	8d\L	p	2d/	.	8.dd\L	f	2.ryy	2.ryy	2.ryy	2.ryy
8D\	.	8d\	.	.	.	.	.	.	.	.	.
.	.	.	.	.	.	32ff\LL	.	.	.	.	.
.	.	.	.	.	.	32ee\JJJ	.	.	.	.	.
8D\	.	8d\	.	.	.	8dd\L	.	.	.	.	.
8D\	.	8d\	.	.	.	8dd\	.	.	.	.	.
8C\	.	8d\	.	4r	.	8dd\	.	.	.	.	.
8C\J	.	8d\J	.	.	.	8dd\J	.	.	.	.	.
!LO:LB:g=original	!	!	!	!	!	!	!	!	!	!	!
=70	=70	=70	=70	=70	=70	=70	=70	=70	=70	=70	=70
!	!	!	!LO:HP:t=Cres&colon;.	!	!	!	!	!	!	!	!
8BB-/L	.	8d\L	<	8d/L	.	8.dd\L	.	2.ryy	2.ryy	2.ryy	2.ryy
8BB-/	.	8d\	.	8d/	.	.	.	.	.	.	.
.	.	.	.	.	.	(32ff\LL	.	.	.	.	.
.	.	.	.	.	.	32ee\JJJ)	.	.	.	.	.
!	!	!	!	!	!	!	!LO:HP:t=cres&colon;	!	!	!	!
8BB-/	.	8d\	.	8d/	.	8dd\L	<	.	.	.	.
8BB-/	.	8d\	.	8d/	.	8dd\	.	.	.	.	.
8AA/	.	8d\	.	8c/	.	8dd\	.	.	.	.	.
8AA/J	.	8d\J	.	8c/J	.	8dd\J	.	.	.	.	.
!	!	!	!	!LO:LB:g=original	!	!	!	!	!	!	!
=71	=71	=71	=71	=71	=71	=71	=71	=71	=71	=71	=71
!	!LO:HP:t=Cres&colon;.	!	!	!	!	!	!	!	!	!	!
8GG/L	<	8d\L	.	8B-/L	.	8.ee\L	.	2.ryy	2.ryy	2.ryy	2.ryy
8GG/	.	8d\	.	8B-/	.	.	.	.	.	.	.
.	.	.	.	.	.	32gg\LL	.	.	.	.	.
.	.	.	.	.	.	32ff\JJJ	.	.	.	.	.
8GG/	.	8d\	.	8B-/	.	8ee\L	.	.	.	.	.
8GG/	.	8d\	.	8B-/	.	8ee\	.	.	.	.	.
8GG#X/	.	8d\	.	8Bn/	.	8ee\	.	.	.	.	.
8GG#/J	.	8d\J	.	8B/J	.	8ee\J	.	.	.	.	.
=72	=72	=72	=72	=72	=72	=72	=72	=72	=72	=72	=72
!	!	!	!	!	!LO:DY:rj	!	!	!	!	!	!
8AA/L	.	8A/L	f	(16A/LL	f	4ee\	f	2.ryy	2.ryy	2.ryy	2.ryy
.	.	.	.	16e/)	.	.	.	.	.	.	.
8AA/	f	8A/	.	(16c#X/	.	.	.	.	.	.	.
.	.	.	.	16e/JJ)	.	.	.	.	.	.	.
!	!	!	!	!	!	!	!LO:DY:t=p&colon;	!	!	!	!
8C#X/	.	8A/	.	(16A/LL	.	4g/	p	.	.	.	.
.	.	.	.	16e/)	.	.	.	.	.	.	.
8C#/	p	8A/	p	(16c#/	.	.	.	.	.	.	.
.	.	.	.	16e/JJ)	.	.	.	.	.	.	.
8D/	.	8A/	.	(16A/LL	.	4f/	.	.	.	.	.
.	.	.	.	16f/)	p	.	.	.	.	.	.
8D/J	.	8A/J	.	(16d/	.	.	.	.	.	.	.
.	.	.	.	16f/JJ)	.	.	.	.	.	.	.
=73	=73	=73	=73	=73	=73	=73	=73	=73	=73	=73	=73
8AA/L	.	8A/L	f	(16A/LL	.	4dd\	f	2.ryy	2.ryy	2.ryy	2.ryy
.	.	.	.	16e/)	.	.	.	.	.	.	.
8AA/	f	8A/	.	(16c#X/	.	.	.	.	.	.	.
.	.	.	.	16e/JJ)	.	.	.	.	.	.	.
!	!	!	!	!	!	!	!LO:DY:t=p&colon;	!	!	!	!
8C#X/	.	8A/	.	(16A/LL	.	4g/	p	.	.	.	.
.	.	.	.	16e/)	.	.	.	.	.	.	.
8C#/	p	8A/	p	(16c#/	.	.	.	.	.	.	.
.	.	.	.	16e/JJ)	.	.	.	.	.	.	.
8D/	.	8A/	.	(16A/LL	.	4f/	.	.	.	.	.
.	.	.	.	16f/)	.	.	.	.	.	.	.
8D/J	.	8A/J	.	(16d/	.	.	.	.	.	.	.
.	.	.	.	16f/JJ)	.	.	.	.	.	.	.
*	*	*Xtremolo	*	*	*	*	*	*	*	*	*
!	!	!	!	!	!	!LO:LB:g=original	!	!	!	!	!
=74	=74	=74	=74	=74	=74	=74	=74	=74	=74	=74	=74
!LO:TX:a:t=P:problem:mixed beam	!	!	!	!	!	!	!	!	!	!	!
.	.	.	.	8qqa/	.	8qqcc/	.	.	.	.	.
8G\L	f	8B-/L	.	8.g/L	f	8.b-/L	.	2.ryy	2.ryy	2.ryy	2.ryy
8G\	.	8B-/	.	.	.	.	.	.	.	.	.
.	.	.	.	32f/LL	.	(32a/LL	.	.	.	.	.
.	.	.	.	32e/JJJ	.	32g/JJJ)	.	.	.	.	.
8A\	.	8A/	.	4d/	.	4f/	.	.	.	.	.
8A\	.	8A/	f	.	.	.	.	.	.	.	.
8AA/	.	8A/	.	4c#X/	.	4e/	.	.	.	.	.
8AA/J	.	8A/J	.	.	.	.	.	.	.	.	.
!	!	!LO:LB:g=original	!	!	!	!	!	!	!	!	!
=75	=75	=75	=75	=75	=75	=75	=75	=75	=75	=75	=75
8D\L	.	2.A/	.	2.d/	.	2.d/	.	2.ryy	2.ryy	2.ryy	2.ryy
8d\	.	.	.	.	.	.	.	.	.	.	.
8A\	.	.	.	.	.	.	.	.	.	.	.
8F\J	.	.	.	.	.	.	.	.	.	.	.
4D\	.	.	.	.	.	.	.	.	.	.	.
==:|!	==:|!	==:|!	==:|!	==:|!	==:|!	===:|!	==:|!	==:|!	==:|!	==:|!	==:|!
*-	*-	*-	*-	*-	*-	*-	*-	*-	*-	*-	*-
!!!system-decoration: [g1][g2][g3]
!!!RDF**dynam: p = "p."
!!!RDF**dynam: f = "f."
!!!RDF**dynam: < = "Cres"
!!!ENC: Marta Lawrence
!!!END: 2020-11-12
!!!ENC: Andrzej Kubiczek
!!!END: 2020-06-06
